packages/hms_room_kit/lib/assets/icons/bluetooth.svg

<svg width="24" height="24" viewBox="0 0 24 24" fill="none" xmlns="http://www.w3.org/2000/svg">
<g id="Bluetooth/Bluetooth On">
<g id="Vector">
<path fill-rule="evenodd" clip-rule="evenodd" d="M9.59597 3.0623C9.90171 2.93567 10.2536 3.00567 10.4876 3.23966L14.5785 7.33056C14.898 7.65008 14.898 8.16812 14.5785 8.48764L11.0662 12L14.5785 15.5124C14.898 15.8319 14.898 16.3499 14.5785 16.6694L10.4876 20.7603C10.2536 20.9943 9.90171 21.0643 9.59597 20.9377C9.29024 20.8111 9.0909 20.5127 9.0909 20.1818V13.9753L6.39672 16.6694C6.0772 16.989 5.55916 16.989 5.23964 16.6694C4.92012 16.3499 4.92012 15.8319 5.23964 15.5124L8.752 12L5.23964 8.48764C4.92012 8.16812 4.92012 7.65008 5.23964 7.33056C5.55916 7.01104 6.0772 7.01104 6.39672 7.33056L9.0909 10.0247V3.8182C9.0909 3.48728 9.29024 3.18894 9.59597 3.0623ZM10.7273 13.9753L12.8429 16.0909L10.7273 18.2065V13.9753ZM10.7273 10.0247V5.79346L12.8429 7.9091L10.7273 10.0247Z" fill="#EFF0FA"/>
<path d="M16.5547 9.10626C16.8741 8.78656 17.3921 8.78627 17.7118 9.10561C18.0922 9.48555 18.3939 9.93673 18.5998 10.4334C18.8057 10.93 18.9116 11.4623 18.9116 11.9999C18.9116 12.5375 18.8057 13.0699 18.5998 13.5665C18.3939 14.0631 18.0922 14.5143 17.7118 14.8942C17.3921 15.2136 16.8741 15.2133 16.5547 14.8936C16.2354 14.5739 16.2357 14.0559 16.5554 13.7365C16.7836 13.5085 16.9646 13.2378 17.0882 12.9399C17.2117 12.6419 17.2753 12.3225 17.2753 11.9999C17.2753 11.6774 17.2117 11.358 17.0882 11.06C16.9646 10.762 16.7836 10.4913 16.5554 10.2633C16.2357 9.94399 16.2354 9.42595 16.5547 9.10626Z" fill="#EFF0FA"/>
<path d="M14.8182 11.1818C14.3663 11.1818 14 11.5481 14 12C14 12.4519 14.3663 12.8182 14.8182 12.8182H14.8263C15.2782 12.8182 15.6445 12.4519 15.6445 12C15.6445 11.5481 15.2782 11.1818 14.8263 11.1818H14.8182Z" fill="#EFF0FA"/>
</g>
</g>
</svg>

<svg xmlns="http://www.w3.org/2000/svg" width="24" height="24" fill="none" viewBox="0 0 24 24"><g fill="#EFF0FA"><path fill-rule="evenodd" d="M9.596 3.062a.818.818 0 0 1 .892.178l4.09 4.09c.32.32.32.838 0 1.158L11.066 12l3.512 3.512c.32.32.32.838 0 1.157l-4.09 4.091a.818.818 0 0 1-1.397-.578v-6.207L6.397 16.67a.818.818 0 1 1-1.157-1.157L8.752 12 5.24 8.488A.818.818 0 1 1 6.397 7.33l2.694 2.694V3.818c0-.33.2-.63.505-.756Zm1.131 10.913 2.116 2.116-2.116 2.115v-4.23Zm0-3.95V5.793l2.116 2.116-2.116 2.116Z" clip-rule="evenodd"/><path d="M16.555 9.106a.818.818 0 0 1 1.157 0 4.09 4.09 0 0 1 0 5.788.818.818 0 1 1-1.157-1.158 2.457 2.457 0 0 0 0-3.473.818.818 0 0 1 0-1.157Zm-1.737 2.076a.818.818 0 1 0 0 1.636h.008a.818.818 0 1 0 0-1.636h-.008Z"/></g></svg>
